X:1
T:Title
%%score { 1 | 2 }
L:1/8
M:4/4
K:G
V:1 treble nm="Grand Piano"
V:2 bass 
V:1
 z4 z2[Q:1/4=100] D2 | B3 A GF[DG]A | B6 D2 | B3 c A2 D2 |[M:7/8] A3 B G3 |[M:1/8] D | %6
[M:4/4] B3 A GF[DG]A | B6 D2 | [Ec]3 [EB] [EA]2 D2 |[M:3/4] B3 A [B,G]2 |[M:1/4] [=FG]2 | %11
[M:4/4] [Ec]3 [Ec] [Ec][Ec][EG][EA] | [DB]6 G2 | d3 B GGFG |[M:3/4] [FA]6 |[M:1/4] D2 | %16
[M:4/4] G3 G A3 A |[M:9/8] B2 B- B [Ec]2- [Ec] [Ec]2 |[M:4/4] B3 A G3 A |[M:3/4] B2 A2 [B,G]2 |] %20
V:2
 z4 z2 [G,B,]2 | [G,D]3 [G,CD] [G,B,D][D,A,D][B,,G,][D,F,D] | [G,D]6 [G,B,]2 | %3
 [G,D]3 [G,E] [D,F,C]2 [D,G,B,]2 |[M:7/8] [D,F,C]3 [D,F,D] [G,B,]3 |[M:1/8] [G,B,] | %6
[M:4/4] [G,D]3 [G,CD] [G,B,D][D,A,D][B,,G,][D,F,D] | [G,D]6 [B,,G,]2 | %8
 [A,,A,]3 [B,,^G,] [C,A,]2 [D,F,]2 |[M:3/4] [D,G,D]3 [D,F,C] [G,,G,]2 |[M:1/4] [G,B,]2 | %11
[M:4/4] [C,G,]3 [C,G,] [C,G,][C,G,][C,G,][C,G,] | [G,,G,]6[K:treble] [G,B,D]2 | %13
 [G,B,D]3 [G,DG] [G,B,D][G,B,D][K:bass][A,CD][G,B,D] |[M:3/4] [D,D]6 |[M:1/4] [D,F,C]2 | %16
[M:4/4] [E,G,B,]3 [E,G,B,] [D,F,D]3 [D,F,D] |[M:9/8] [G,D]2 [G,D]- [G,D] [C,G,]2- [C,G,] [A,,G,]2 | %18
[M:4/4] [D,G,D]3 [D,F,C] [E,G,B,]3 [^D,G,C] |[M:3/4] [D,G,D]2 [D,F,C]2 [G,,G,]2 |] %20

